libs/ui/packages/crypto-icons/src/svg/EOP.svg

<svg width="24" height="24" viewBox="0 0 24 24" fill="none">
<path d="M11.0355 21L7.02454 10.3027L5.40454 17.6827L11.0355 21ZM12.09 3.12823L7.69279 8.47724L12.09 19.7145L16.5128 8.47724L12.09 3.12823ZM13.17 21L17.1818 10.3027L18.7755 17.6827L13.17 21Z" fill="#FEFFFE"/>
<path d="M10.9455 20.9359L6.93451 10.2386L5.31451 17.6186L10.9455 20.9359ZM12 3.06415L7.60276 8.41315L12 19.6504L16.4228 8.41315L12 3.06415ZM13.08 20.9359L17.0918 10.2386L18.6855 17.6186L13.08 20.9359Z" fill="#35A7DF"/>
</svg>

<svg width="24" height="24" viewBox="0 0 24 24" fill="none"><path fill="#fefffe" d="M11.036 21 7.025 10.303l-1.62 7.38zM12.09 3.128l-4.397 5.35 4.397 11.237 4.423-11.238zM13.17 21l4.012-10.697 1.594 7.38z"/><path fill="#35a7df" d="M10.946 20.936 6.934 10.239l-1.62 7.38zM12 3.064l-4.397 5.35L12 19.65l4.423-11.237zm1.08 17.872 4.012-10.697 1.594 7.38z"/></svg>
